X:1
T:After the Hare -- Reel
R:reel
B:Ryan's Mammoth Collection
N:261
Z:Contributed by Ray Davies,  ray:davies99.freeserve.co.uk
M:2/4
L:1/16
K:A
"A MINOR"\
vEAcA "4"eAcA | EAc"4"e (dB).B2 | EAcA "4"eAcA | af"0"ed cABG |
EAcA "4"eAcA | EAc"4"e dBBg | {b}aga"0"e faec | dfed (cA).A2 :|
|:ue2|\
{b}aga"0"e fefg | afec dBBe | {b}agae faec | dB"4"ed cAA"0"e |
{b}aga"0"e faec | {e}dBcA (BA).F2 | EAAB cAaf | ecBc A2 :|
